!!!OTL: Ritter und Magd Es schlaeft ein Graf bei seiner Magd
!!!ARE: Europa, Osteuropa, Ungarn, Nemetker Komitat Tolnau
!!!YOR: 3, S. 17
!!    1935 aufgezeichnet (aeltere Fassung, vgl. Q0055J)
!!!SCT: Q0055I
!!!YEM: Copyright 1995, estate of Helmut Schaffrath.
**kern
*ICvox
*Ivox
*M2/2
*k[f#]
*G:
{4g
=1
4b
4g
4g
4b
=2
4a
8a
8g
4f#}
{4e
=3
4g
4e
4g
4e
=4
4d
4g
4d}
{8d
8d
=5
4e
8c
8c
4c
8e
8e
=6
4d
8d
8c
4B}
{4d
=7
4g
4g
4b
4g
=8
2a
4g}
==
!!!AGN: Ballade, Betrug, Schwangerschaft, Tod, Selbstmord, Herr und Magd
!! Dritte Zeile = Refrain auf sinnfreie Silben.
!!!ONB: ESAC (Essen Associative Code) Database: BALLADE
!!!AMT: simple duple
!!!AIN: vox
!!!EED: Helmut Schaffrath
!!!EEV: 1.0
*-
